public/svgs/solid/kerning.svg

<svg xmlns="http://www.w3.org/2000/svg" viewBox="0 0 640 512"><!-- Font Awesome Pro 6.0.0-alpha2 by @fontawesome - https://fontawesome.com License - https://fontawesome.com/license (Commercial License) --><path d="M316.637 142.312C324.543 126.5 318.137 107.281 302.325 99.375C286.465 91.5 267.278 97.875 259.387 113.688L160.012 312.438L60.637 113.688C52.746 97.875 33.575 91.5 17.7 99.375C1.887 107.281 -4.519 126.5 3.387 142.312L131.387 398.312C136.809 409.156 147.887 416 160.012 416S183.215 409.156 188.637 398.312L316.637 142.312ZM636.637 369.688L508.637 113.688C497.793 92 462.231 92 451.387 113.688L323.387 369.688C315.481 385.5 321.887 404.719 337.7 412.625C353.559 420.5 372.715 414.125 380.637 398.313L403.793 352H556.231L579.387 398.312C584.996 409.531 596.293 416 608.043 416C612.84 416 617.731 414.906 622.325 412.625C638.137 404.719 644.543 385.5 636.637 369.688ZM435.793 288L480.012 199.562L524.231 288H435.793ZM447.168 1.688C439.246 -2.312 429.668 0.969 425.7 8.844L185.7 488.844C181.746 496.75 184.95 506.344 192.856 510.312C195.153 511.469 197.59 512 199.996 512C205.871 512 211.512 508.75 214.325 503.156L454.325 23.156C458.278 15.25 455.075 5.656 447.168 1.688Z"/></svg>

<svg xmlns="http://www.w3.org/2000/svg" viewBox="0 0 640 512"><!--! Font Awesome Pro 6.5.1 by @fontawesome - https://fontawesome.com License - https://fontawesome.com/license (Commercial License) Copyright 2023 Fonticons, Inc. --><path d="M454.3 23.2c4-7.9 .7-17.5-7.2-21.5s-17.5-.7-21.5 7.2l-240 480c-4 7.9-.7 17.5 7.2 21.5s17.5 .7 21.5-7.2l240-480zM60.6 113.7C52.7 97.9 33.5 91.5 17.7 99.4S-4.5 126.5 3.4 142.3l128 256c5.4 10.8 16.5 17.7 28.6 17.7s23.2-6.8 28.6-17.7l128-256c7.9-15.8 1.5-35-14.3-42.9s-35-1.5-42.9 14.3L160 312.4 60.6 113.7zm320 284.6L403.8 352H556.2l23.2 46.3c7.9 15.8 27.1 22.2 42.9 14.3s22.2-27.1 14.3-42.9l-128-256C503.2 102.8 492.1 96 480 96s-23.2 6.8-28.6 17.7l-128 256c-7.9 15.8-1.5 35 14.3 42.9s35 1.5 42.9-14.3zM480 199.6L524.2 288H435.8L480 199.6z"/></svg>
